X:1
T:O'Keeffe's Slide
S:Sessions, LPs, etc
Z:John Chambers <jc:trillian.mit.edu>
M:12/16
L:1/16
K:Ador
|:\
"Am"A2e e2d "G"BAB d2B | "Am"A2e e2d "G"B2G GAB |\
"Am"A2e e2d "G"BAB d3  "I"| "G"BAB d2e "Am"B2A A3 :|
|:\
"Am"e2a a2b a2g e2d | "Am"e2a a2b a2g e2f |\
"G"g2a g2e dBA G3  | "G"BAB d2e "Am"B2A A3 : 
